X:1
T:Title
%%score { ( 1 3 ) | 2 }
L:1/8
M:6/8
K:Ab
V:1 treble nm="Grand Piano"
V:3 treble 
V:2 bass 
V:1
 z3 z2[Q:1/4=90] [CE] | [CA]>[CA][CA] [Ec][EB][EA] | .B3 z3 | [CA]2 [CA] [Ec]<[Ec][EA] | %4
[M:5/8] [EB]-[EB]- [EB]3 |[M:1/8] [CE] |[M:3/4] [CA]>[CA] [CA][Ec] [EB][EA] | [FB][FA] [DF] [CE]3 | %8
 A2 Ac/c/- cB |[M:5/8] [CA]-[CA]- [CA]3 |[M:3/4] e2 ce/c/- c z | [FA]2 [DF][FA]/[DF]/- [DF] z | %12
 [CE]2 [CA][Ec]/[Ec]/- [Ec][EA] | B6 | e2 ce/c/- c z | [FA]2 [DF][FA]/F/- F z | E2 Ac/c/- cB | %17
[M:5/8] [CA]-[CA]- [CA]3 |] %18
V:2
 z3 z2 [A,,A,] | [A,,A,]>[A,,A,][A,,A,] [A,,A,][B,,G,][C,A,] | [D,A,]2 [D,A,D] [A,,A,]3 | %3
 [A,,E,]2 [A,,E,] [A,,A,]<[A,,A,][C,A,] |[M:5/8] [E,G,]-[E,G,]- [E,G,]3 |[M:1/8] [A,,A,] | %6
[M:3/4] [A,,E,]>[A,,E,] [A,,E,][A,,A,] [B,,G,][C,A,] | [D,A,][D,A,] [D,A,] [A,,A,]3 | %8
 [F,A,C]2 [F,A,C][E,A,E]/[E,A,E]/- [E,A,E][E,G,D] |[M:5/8] [A,,A,]-[A,,A,]- [A,,A,]3 | %10
[M:3/4][K:treble] [A,CA]2 [A,E][A,CA]/[A,E]/- [A,E] z | [D,D]2 [D,A,][D,D]/[D,A,]/- [D,A,] z | %12
 [A,,A,]2 [A,,E,][A,,A,]/[A,,A,]/- [A,,A,][C,A,] | [E,G,E]6 | [A,CA]2 [A,E][A,CA]/[A,E]/- [A,E] z | %15
 [D,D]2 [D,A,][D,D]/[D,A,D]/- [D,A,D] z | [E,A,C]2 [E,A,C][E,A,E]/[E,A,E]/- [E,A,E][E,G,D] | %17
[M:5/8] [A,,A,]-[A,,A,]- [A,,A,]3 |] %18
V:3
 x6 | x6 | F-[FA]F [CE]3 | x6 |[M:5/8] x5 |[M:1/8] x |[M:3/4] x6 | x6 | x6 |[M:5/8] x5 | %10
[M:3/4] x6 | x6 | x6 | x6 | x6 | x6 | x6 |[M:5/8] x5 |] %18

